X:1
T:[ID 5-31]
T:[ID 5-31]
T:Bezeichnung standardisiert: Menuet [mit Trio] Menuet Con Trio
T:Urheber unbekannt Datum in der hier transkribierten schriftlichen Quelle: 1773
C:Urheber unbekannt
C:Datum in der hier transkribierten schriftlichen Quelle: 1773
L:1/8
M:3/4
K:D
V:1 treble 
V:1
 (3dfa d'2 b2 | a4 fd | g2 e2 cA |{c} d4 e2 | f4 ed | (3efg a4 | cfedcB |{B} A6 :: c2 (3cde A2 | %9
 d2 (3def A2 | e2 (3efg A2 | f2 (3fga A2 |{c'} b4 ag | fd'c'bag | (3fed Te4 |{e} d6 :| %16
[M:3/4]"^Trio" !fermata!d2 d2 d2 | e2 e2 e2 |{d} c2 cBcA |{c} d6 | f2 f2 f2 |{a} g2 g2 g2 | %22
 e2 efge |{e} f6 :: a4 b(3c'/b/a/ | b6 | g2 gefg | a6 | f4 g(3a/g/f/ | g6 | e2 efge | f6 |{e} d6 | %33
{f} e6 | c2 cABc | d6 :| %36

